X: 1116
T: Rocky Road to Dublin
R:slip jig
N:"Collected by McFadden"
B:O'Neill's 1116
Z:Transcribed by Michael Hogan
M:9/8
L:1/8
K:A
|: efe d2B A2A | E2A A2A Bcd | efe d2B A2c | B2A G2A Bcd :|
e2a {b}a2f g2b | e2a {b}a2A Bcd | e2a {b}a2f g2e | d2B G2A Bcd |
e2a {b}a2f g2d | e2a {b}a2A Bcd | efg fga gfe | d2B G2A Bcd ||
ecA ecA A2a | ecA ecA Bcd | ecA ecA a2c | d2B G2A Bcd |
ecA ecA A2a | ecA ecA Bcd | efg fga gfe | d2B G2A Bcd ||


